icons/arrow-tv-triple.svg

<svg width="24" height="25" viewBox="0 0 24 25" fill="none" xmlns="http://www.w3.org/2000/svg">
<path fill-rule="evenodd" clip-rule="evenodd" d="M2.25 8.25C2.25 5.63579 4.38579 3.5 7 3.5H17C19.6142 3.5 21.75 5.63579 21.75 8.25C21.75 8.66421 21.4142 9 21 9C20.5858 9 20.25 8.66421 20.25 8.25C20.25 6.46421 18.7858 5 17 5H7C5.21421 5 3.75 6.46421 3.75 8.25V14.25C3.75 16.0358 5.21421 17.5 7 17.5H12.8C13.2142 17.5 13.55 17.8358 13.55 18.25C13.55 18.6642 13.2142 19 12.8 19H7C4.38579 19 2.25 16.8642 2.25 14.25V8.25Z" fill="black"/>
<path fill-rule="evenodd" clip-rule="evenodd" d="M9.96967 15.1197C10.2626 14.8268 10.7374 14.8268 11.0303 15.1197L13.1303 17.2197C13.4077 17.497 13.5 17.8598 13.5 18.1625C13.5 18.4722 13.4066 18.7921 13.224 19.066L13.1828 19.1278L11.0303 21.2804C10.7374 21.5732 10.2626 21.5732 9.96967 21.2804C9.67678 20.9875 9.67678 20.5126 9.96967 20.2197L11.9893 18.2L9.96967 16.1804C9.67678 15.8875 9.67678 15.4126 9.96967 15.1197Z" fill="black"/>
<path fill-rule="evenodd" clip-rule="evenodd" d="M13.7697 15.1197C14.0626 14.8268 14.5374 14.8268 14.8303 15.1197L16.9303 17.2197C17.2076 17.497 17.3 17.8598 17.3 18.1625C17.3 18.4722 17.2066 18.7921 17.024 19.066L16.9828 19.1278L14.8303 21.2804C14.5374 21.5732 14.0626 21.5732 13.7697 21.2804C13.4768 20.9875 13.4768 20.5126 13.7697 20.2197L15.7893 18.2L13.7697 16.1804C13.4768 15.8875 13.4768 15.4126 13.7697 15.1197Z" fill="black"/>
<path fill-rule="evenodd" clip-rule="evenodd" d="M17.7697 15.1197C18.0626 14.8268 18.5374 14.8268 18.8303 15.1197L20.9303 17.2197C21.2076 17.497 21.3 17.8598 21.3 18.1625C21.3 18.4722 21.2066 18.7921 21.024 19.066L20.9828 19.1278L18.8303 21.2804C18.5374 21.5732 18.0626 21.5732 17.7697 21.2804C17.4768 20.9875 17.4768 20.5126 17.7697 20.2197L19.7893 18.2L17.7697 16.1804C17.4768 15.8875 17.4768 15.4126 17.7697 15.1197Z" fill="black"/>
</svg>

<svg xmlns="http://www.w3.org/2000/svg" fill="none" viewBox="0 0 24 25">
  <path fill="#000" fill-rule="evenodd" d="M2.25 8.25A4.762 4.762 0 0 1 7 3.5h10a4.762 4.762 0 0 1 4.75 4.75.75.75 0 0 1-1.5 0A3.262 3.262 0 0 0 17 5H7a3.262 3.262 0 0 0-3.25 3.25v6A3.262 3.262 0 0 0 7 17.5h5.8a.75.75 0 0 1 0 1.5H7a4.762 4.762 0 0 1-4.75-4.75v-6Z" clip-rule="evenodd"/>
  <path fill="#000" fill-rule="evenodd" d="M9.97 15.12a.75.75 0 0 1 1.06 0l2.1 2.1c.278.277.37.64.37.943 0 .31-.093.63-.276.903l-.041.062-2.153 2.152a.75.75 0 0 1-1.06-1.06l2.02-2.02-2.02-2.02a.75.75 0 0 1 0-1.06Zm3.8 0a.75.75 0 0 1 1.06 0l2.1 2.1c.278.277.37.64.37.943 0 .31-.093.63-.276.903l-.041.062-2.153 2.152a.75.75 0 0 1-1.06-1.06l2.02-2.02-2.02-2.02a.75.75 0 0 1 0-1.06Zm4 0a.75.75 0 0 1 1.06 0l2.1 2.1c.278.277.37.64.37.943 0 .31-.093.63-.276.903l-.041.062-2.153 2.152a.75.75 0 0 1-1.06-1.06l2.02-2.02-2.02-2.02a.75.75 0 0 1 0-1.06Z" clip-rule="evenodd"/>
</svg>
